usr/share/icons/biglinux-icons-material/16/actions/unmarkasblank.svg

<svg xmlns="http://www.w3.org/2000/svg" viewBox="0 0 16 16"><path d="M2 2v12h3v-1H3V3h2V2H2zm9 0v1h2v5h1V2h-3zm-7 8v2h4v-1H5v-1H4z" style="fill:currentColor;fill-opacity:1;stroke:none;color:#dedede"/><path d="m9.71 9-.707.707 1.793 1.793-1.793 1.793.707.707 1.793-1.793L13.296 14l.707-.707L12.21 11.5l1.793-1.793L13.296 9l-1.793 1.793Z" style="fill:currentColor;fill-opacity:1;stroke:none;color:#da4453"/></svg>

<svg xmlns="http://www.w3.org/2000/svg" viewBox="0 0 16 16">
  <defs id="defs3051">
    <style type="text/css" id="current-color-scheme">
      .ColorScheme-Text {
        color:#dedede;
      }
      .ColorScheme-NegativeText {
        color:#da4453;
      }
      </style>
  </defs>
 <path 
     style="fill:currentColor;fill-opacity:1;stroke:none" 
     d="M 2 2 L 2 14 L 5 14 L 5 13 L 3 13 L 3 3 L 5 3 L 5 2 L 2 2 z M 11 2 L 11 3 L 13 3 L 13 8 L 14 8 L 14 2 L 13 2 L 11 2 z M 4 10 L 4 12 L 8 12 L 8 11 L 5 11 L 5 10 L 4 10 z "
     class="ColorScheme-Text"/>
  <path
      style="fill:currentColor;fill-opacity:1;stroke:none" 
     class="ColorScheme-NegativeText"
     d="M 9.71,9 9.003,9.707 10.796,11.5 9.003,13.293 9.71,14 11.503,12.207 13.296,14 14.003,13.293 12.21,11.5 14.003,9.707 13.296,9 11.503,10.793 Z"
      />
</svg>
